source/img/link-phone-icon.svg

<svg width="14" height="14" viewBox="0 0 14 14" fill="none" xmlns="http://www.w3.org/2000/svg">
<path d="M13.9933 11.0487C14.023 11.2761 13.9537 11.4739 13.7858 11.6419L11.8147 13.5995C11.7257 13.6983 11.6097 13.7825 11.4664 13.8516C11.3231 13.9208 11.1824 13.9653 11.0441 13.9851C11.0342 13.9851 11.0045 13.9876 10.9551 13.9926C10.9057 13.9975 10.8415 14 10.7625 14C10.5747 14 10.2708 13.9679 9.85091 13.9036C9.43098 13.8393 8.91722 13.6811 8.30961 13.429C7.70186 13.1769 7.01272 12.7987 6.24206 12.2945C5.4714 11.7903 4.65129 11.0982 3.7818 10.2182C3.09017 9.536 2.51709 8.88346 2.06259 8.2606C1.60808 7.6377 1.2425 7.06178 0.965848 6.53283C0.689168 6.00387 0.481677 5.52435 0.343349 5.09427C0.205021 4.66419 0.111156 4.29342 0.0617534 3.98198C0.0123507 3.67054 -0.00741041 3.42584 0.00247014 3.24788C0.0123507 3.06991 0.017291 2.97104 0.017291 2.95127C0.0370521 2.81285 0.0815145 2.67196 0.150678 2.5286C0.219842 2.38524 0.303827 2.26906 0.402632 2.18008L2.3738 0.207627C2.51213 0.0692089 2.67022 -1.55994e-10 2.84807 -1.55994e-10C2.97652 -1.55994e-10 3.09014 0.0370762 3.18895 0.111229C3.28775 0.185381 3.37174 0.276836 3.4409 0.385593L5.02673 3.39618C5.11565 3.55437 5.14036 3.72739 5.10083 3.91525C5.06131 4.1031 4.97733 4.26129 4.84888 4.38982L4.12266 5.11652C4.1029 5.13629 4.08561 5.16842 4.07079 5.21291C4.05597 5.25741 4.04855 5.29448 4.04855 5.32414C4.08808 5.53177 4.177 5.76906 4.31533 6.03601C4.4339 6.27329 4.61669 6.56249 4.8637 6.90359C5.11071 7.24469 5.46147 7.63767 5.91598 8.08259C6.3606 8.53744 6.75583 8.89085 7.10164 9.14302C7.44739 9.39504 7.73649 9.58049 7.96869 9.69914C8.20088 9.81778 8.37873 9.88946 8.50221 9.91411L8.68742 9.95121C8.70718 9.95121 8.73937 9.94377 8.78378 9.92896C8.82825 9.91411 8.86036 9.89683 8.88014 9.87703L9.72491 9.01686C9.90285 8.85869 10.1102 8.7796 10.3474 8.7796C10.5154 8.7796 10.6487 8.80923 10.7475 8.86858H10.7623L13.6227 10.5593C13.8303 10.6879 13.9538 10.851 13.9933 11.0487Z" fill="white"/>
</svg>

<svg width="14" height="14" fill="none" xmlns="http://www.w3.org/2000/svg"><path d="M13.993 11.049a.677.677 0 0 1-.207.593L11.815 13.6a1.11 1.11 0 0 1-.349.252 1.45 1.45 0 0 1-.422.133l-.089.008c-.05.005-.114.007-.193.007-.187 0-.491-.032-.911-.096-.42-.065-.934-.223-1.541-.475-.608-.252-1.297-.63-2.068-1.135-.77-.504-1.59-1.196-2.46-2.076a16.248 16.248 0 0 1-1.72-1.957A13.948 13.948 0 0 1 .967 6.533a9.31 9.31 0 0 1-.623-1.439c-.138-.43-.232-.8-.281-1.112a3.676 3.676 0 0 1-.06-.734c.01-.178.015-.277.015-.297.02-.138.065-.279.134-.422.069-.144.153-.26.252-.349L2.373.208A.653.653 0 0 1 2.849 0c.129 0 .242.037.341.111.099.074.183.166.252.275l1.586 3.01a.722.722 0 0 1 .074.52.925.925 0 0 1-.252.474l-.726.727a.247.247 0 0 0-.052.096.366.366 0 0 0-.022.111c.04.208.128.445.266.712.119.237.302.526.549.868.247.34.597.734 1.052 1.179.445.454.84.808 1.186 1.06.345.252.634.437.867.556.232.119.41.19.533.215l.185.037c.02 0 .052-.007.097-.022a.247.247 0 0 0 .096-.052l.845-.86a.907.907 0 0 1 .622-.237c.168 0 .302.03.4.089h.015l2.86 1.69c.208.129.332.292.371.49z" fill="#fff"/></svg>
